X: 1
T: Glass Island Reel
T: Native American Peninsula
C: Ethan Hazzard-Watkins 1997
F: http://www.ethanhw.com/tunes.html
F: http://www.originaltraditional.net/tunes/39/Glass%20Island%20Reel.pdf
N: Where did the alternate title come from
R: reel
Z: 2005 John Chambers <jc:trillian.mit.edu>
M: C|
L: 1/8
K: Em
|: "Em"EFGA BAGF | "Em"EFGA     B3B   | "C"cGEc    GEcG |   "D"AFDA FDAF |
|  "Em"BGEB GEBG | "Em"BG~G2 "D"AF~F2 | "G"BAGB "D"AFDF |1 "Em"EFGF E4  :|2 "Em"EFGF EFGA ||
|: "Em"Be~e2 Bege | "C"ce~e2 cege | "D"df~f2 dfaf | "Em"gaba "(Bm)"gfed |
|  "Em"Be~e2 Bege | "C"ce~e2 cege | "D"df~f2 dfab |  "D"agfg  "Em" e4  :|
